X:32
T:Miss Le Goic
C:François Champs
Z:Gwen 2019-11-26
R:Reel
M:2/2
Q:1/2=96
K:A
|: EAA/A/A EAGA | ABAF ABce | c2BA FBBA | B2BA FBBA |
   Bcde EAA/A/A | EAGA ABAF | ABce cBAF |1 EFAB A2GF :|2 EFAB A3f
|: eAcA e2ef | eAcA Bcdf | eAcA Bgg/g/g | gfeB caa/a/a |
   agfe eAcA | e2ef eAcA | Bcdf eAcA |1 BAGB A3f :|2 BAGB A2GF ||

